!!!!SEGMENT: pl-wtm--1481-sp-7693--001-004_szymanowski-karol--szesc-piesni-op-20-no-4-w-mem-sercu.krn
!!!cenid: 19xx:61
!!!COM: Szymanowski, Karol
!!!COM-rismID: pe30106403
!!!CDT: 1882-1937
!!!CNT: Polish
!!!GTL: Sześć pieśni Op. 20
!!!OTL: No. 4. W mem sercu
!!!OMV: 004
!!!PDT: 1925
!!!AGN: Secular; Song
!!!YEC: Copyright 2022 Narodowy Instytut Fryderyka Chopina (https://polishscores.org)
!!!YEM: License CC-BY-4.0 (https://creativecommons.org/licenses/by/4.0)
!!!SMS-siglum: PL-Wtm
!!!SMS-shelfmark: 1481 śp 7693
!!!SMS-variant:
!!!SMS-altvar:
!!!SMS-shelfwork: 001-004 G
!!!NIFC-rismSourceID: 1001210639
!!!NIFC-rismChildID: 1001210639
!!!NIFC-islandoraID: pl-wtm:73423
!!!URL-pdf-islandora: https://repozytorium.nifc.pl/islandora/object/pl-wtm%3A73423/datastream/PDF/view
!!!URL-scan: https://polish.musicsources.pl/pl/lokalizacje/galeria/druki-muzyczne/18683/8 @EN{Scan on Polish Music Sources Website} @PL{Skany w portalu Dziedzictwo Muzyki Polskiej w otwartym dostępie}
!!!IIIF:
!!!ONB-nifc: UWAGA: str. 8-9.
!!!AIN: 1 canto 2 forte
!!!key: B
**kern	**kern	**dynam	**kern	**text	**text	**text	**dynam
*part3	*part2	*part2	*part1	*part1	*part1	*part1	*part1
*staff3	*staff2	*	*staff1	*staff1	*staff1	*staff1	*
*I"Piano.	*I"Piano.	*	*I"Canto.	*	*	*	*
*	*I'pf	*	*I'voce umana	*	*	*	*
*Iforte	*Iforte	*	*Icanto	*	*	*	*
*ICklav	*ICklav	*	*ICvox	*	*	*	*
*clefF4	*clefG2	*	*clefG2	*	*	*	*
*k[f#c#g#d#a#]	*k[f#c#g#d#a#]	*	*k[f#c#g#d#a#]	*	*	*	*
*B:	*B:	*	*B:	*	*	*	*
*M4/8	*M4/8	*	*M4/8	*	*	*	*
!	!	!	!LO:TX:a:B:t=Moderato. Tranquillo.	!	!	!	!
(8EEE/ 8EE	(16b#X~\LL 16gg#	p	8r	.	.	.	.
.	16bn\JJ 16dd#	.	.	.	.	.	.
=1	=1	=1	=1	=1	=1	=1	=1
*	*^	*	*	*	*	*	*
8AAA#/L 8AA#	16a#\LL 16ff#	4.ryy	<	8cc#\	W mem	Mon	In	.
.	16g#\ 16cc#	.	.	.	.	.	.	.
8CC#/J) 8C#	16gn\ 16ee	.	.	4ee\	ser-	â-	mei-	.
.	16f#\JJ 16a#	.	.	.	.	.	.	.
(8AA#\L 8Gn 8c#	16e/LL 16cc#	.	.	.	.	.	.	.
.	16d#/ 16f##X	.	[	.	.	.	.	.
8BB\J) 8E#X 8G#X	16dn/	[>8g#X\	.	8g#/	-cu	-me	-nem	.
.	16A#/JJ [16e#X	.	.	.	.	.	.	.
=2	=2	=2	=2	=2	=2	=2	=2	=2
*	*	*^	*	*^	*	*	*	*
(8BBB/L 8BB	8.g#/L]	[4G#\	16e#\LL]	.	8g#\	8.g#/	ba-	rê-	Her-	.
.	.	.	16en\	.	.	.	.	.	.	.
8AAA#/J) 8AA#	.	.	16d#\	.	16g#\	.	.	-ve	.	.
.	16a#/Jk	.	16dn\JJ	.	16a#/	16ryy	-śni	de	-zen	.
([8EEE^/L [8EE	8c#/) 8g#	8G#\]	4ryy	.	16g#/	4ryy	o	l`au-	singt	.
.	.	.	.	.	16g#/	.	ju-	-be	die	.
16EEE/L] 16EE]	[8b~\ [8ee [8gg# [8bb	8ryy	.	.	[8b\	.	-trzen-	ro-	Frü-	.
16DDD#/JJ 16DD#	.	.	.	.	.	.	.	.	.	.
*	*v	*v	*v	*	*	*	*	*	*	*
!!LO:LB:g=original
=3	=3	=3	=3	=3	=3	=3	=3	=3
8CCC#/L) 8CC#	(16b\LL] 16ee] 16gg#] 16bb]	<	16b\]	8.ryy	.	.	.	.
.	16dd#\ 16ff##X	.	16b\	.	-ce	-se,	-he	.
(8AAA#/J 8AA#	16g#\ 16ddn 16gg#	.	16r	.	.	.	.	.
.	16cc#\JJ 16ee#X	.	16ee#X/	16cc#\	i	de	und	.
8DDn/L 8Dn	16f#X\LL 16ccn 16ff#X	.	16ff#/	16ccn\	fan-	la	frem-	.
.	16b\ 16dd#X	.	16dd#\	8.ryy	-tas-	blan-	-de	.
8FF#/J) 8F#	16en\ 16a# 16een	.	16ddn\	.	-tycz-	-che	Win-	.
.	[16an\JJ [16cc#X	[	16cc#X\	.	-ne	beau-	-ter-	.
*	*	*	*v	*v	*	*	*	*
=4	=4	=4	=4	=4	=4	=4	=4
*^	*^	*	*	*	*	*	*
(8AAn/L 8An	(4En\	8.c#/L 8.cc#]	(16a\LL]	.	8.cc#\	kwia-	-té	-blu-	.
.	.	.	16g#\	.	.	.	.	.	.
[<8BB-X/J [8B-X	.	.	16gn\	.	.	.	.	.	.
.	.	16d#/Jk 16dd#	16f#\JJ	.	16dd#\	-ty	du	-men	.
16BB-/]) 16B-]	8Fn\)	8dn/) 8ddn	8fn\)	.	8ddn\	szro-	giv-	blü-	.
(16FFF#X/LL	.	.	.	.	.	.	.	.	.
!	!	!LO:TX:t=P:problem=kasownik 8ddn w nawiasie	!	!	!	!	!	!	!
16FF#X/	8ryy	((8fn~\L 8ddn 8ffn	8ryy	pp <	8fn/	-mu;	-re.	-hen;	.
16BBn/	.	.	.	.	.	.	.	.	.
*v	*v	*	*	*	*	*	*	*	*
*	*v	*v	*	*	*	*	*	*
=5	=5	=5	=5	=5	=5	=5	=5
16BB#X/JJ) 16F#X 16An	8f#X\J) 8dd#X 8ff#X	.	8r	.	.	.	.
(16DDDn/LL	.	.	.	.	.	.	.
*	*8va	*	*	*	*	*	*
16DDn/	8gg#X\L 8eee#X 8ggg#X	[	16b\	w mem	Et	in	.
16D#X/	.	.	8b\	ser-	en	mei-	.
16An/JJ) 16cn 16f#X	16bb\L 16fff# 16bbb	<	.	.	.	.	.
(16GGG#/LL	16aa#X\JJ 16aaa#X	.	16a#X/	-cu	mom	-nem	.
*	*X8va	*	*	*	*	*	*
16GG##X/	((8gn~\ 8een 8ggn	.	[8cc#\	jak-	coeur	Her-	.
16C#/JJ	.	.	.	.	.	.	.
!!LO:LB:g=original
=6	=6	=6	=6	=6	=6	=6	=6
16Dn/) 16G#X 16Bn	8g#X\) 8ee#X 8gg#X	.	8.cc#\]	.	mil-	.	.
16EEEn/LL	.	.	.	.	.	.	.
*	*8va	*	*	*	*	*	*
16EEn/	(8aa#X\L 8fff##X 8aaa#X	[	.	.	.	.	.
16Fn/	.	.	16cc#\	-by	-le	-zen	.
16B/JJ 16dn 16g#	16ccc#\L 16ggg# 16cccc#	.	16cc#\	e-	clo-	läu-	.
(16AAA#X/LL	16bb#X\JJ)) 16bbb#X	.	16b#X\	-cho	-ches	-ten	.
*	*X8va	*	*	*	*	*	*
16AA#X/	([8bn^\L [8gg# [8bbn	f	[8gg#X\	dzwo-	son-	Glo-	.
16E#X/	.	.	.	.	.	.	.
=7	=7	=7	=7	=7	=7	=7	=7
16G#/JJ) 16c##X	16b\L] 16gg#] 16bb]	.	4gg#\]	.	.	.	.
*	*	*^	*	*	*	*	*
(16BBB/LL	16a#X\JJ 16aa#X	>	.	.	.	.	.	.
16BB/	([8an^\L [8dd# [8aan	.	.	.	.	.	.	.
!	!	!LO:HP:t=dimin.	!	!	!	!	!	!
16F#/	.	.	>	.	.	.	.	.
16An/JJ) 16d#	16a\L] 16dd#] 16aa]	.	.	8ff#\	-nu;	-nent.	-cken;	.
(16CCCn/LL	16g#\JJ) 16gg#	>	.	.	.	.	.	.
16CCn/	[8gn^\ [8ee-X [8ggn	.	]]	8r	.	.	.	.
*	*	*v	*v	*	*	*	*	*
16BB-X/JJ	.	.	.	.	.	.	.
!!LO:PB:g=original
=8	=8	=8	=8	=8	=8	=8	=8
*M3/8	*M3/8	*	*M3/8	*	*	*	*
*	*^	*	*	*	*	*	*
16B-X/)	16g\LL] 16ee-] 16gg]	8ryy	.	4.r	.	.	.	.
(16FFF#X/LL	16f#\JJ) 16ff#	.	.	.	.	.	.	.
16FF#X/	[4en~/ [4een	[8a#X\L [8ddn	]	.	.	.	.	.
16AA#X/	.	.	.	.	.	.	.	.
16A#X/JJ)	.	16a#\L] 16dd]	.	.	.	.	.	.
!LO:TX:a:i:t=(ten.)	!	!	!	!	!	!	!	!
16FFF#~/ [<16FF#	.	16an\JJ) [16cc#	.	.	.	.	.	.
*	*v	*v	*	*	*	*	*	*
=9	=9	=9	=9	=9	=9	=9	=9
*M4/8	*M4/8	*	*M4/8	*	*	*	*
*^	*^	*	*	*	*	*	*
!	!	!LO:TX:a:i:t=Mesto.	!	!	!LO:TX:t=P:problem:kasownik w nawiasie	!	!	!	!
(8GG#/L	2FF#\]	(16e/LL] 16g# 16cc#] 16ee]	4ryy	pp	8een\	w mem	Et	und	.
.	.	16f#/ 16b	.	.	.	.	.	.	.
8BB/J)	.	16fn/ 16ddn	.	<	4ddn\	ser-	en	blut-	.
.	.	16e/JJ 16g#	.	.	.	.	.	.	.
([8AAn\L 8Fn 8B	.	16dn/LL 16b	8B\L	.	.	.	.	.	.
.	.	16c#/ 16e#X	.	.	.	.	.	.	.
8AA\J]) 8D#X 8F#X	.	[16B#X/	[8f\J	.	8f#/	-cu	mon	be-	.
.	.	16G#/JJ 16d	.	[	.	.	.	.	.
=10	=10	=10	=10	=10	=10	=10	=10	=10	=10
*	*	*	*^	*	*^	*	*	*	*
(8FF#/L	[4FFF#\ [4FF#	8.f/L]	16B#\LL] 16d#	[4F#\	.	8.f#/	4ryy	za-	coeur	-fleck-	.
.	.	.	16dn\	.	.	.	.	.	.	.	.
8GG#/J)	.	.	16c#\	.	.	.	.	.	.	.	.
.	.	16g#/Jk	16B#X\JJ	.	.	16g#/	.	-krwa-	vi-	-te	.
(8Dn/L	16FFF#\KL] 16FF#]	8fn/)	8F#\] 8Bn	4ryy	.	16f#/	16f#\	-wio-	-bre	Hän-	.
.	[8.FFF#\J [8.FF#	.	.	.	.	16f#/	8.ryy	-ne	cru-	.	.
16D^/L	.	([8an\ [8ddn [8ff# [8aan	8ryy	.	.	[8an~/	.	rę-	-el-	.	.
16C#/JJ	.	.	.	.	.	.	.	.	.	.	.
*	*	*v	*v	*v	*	*	*	*	*	*	*
!!LO:LB:g=original
=11	=11	=11	=11	=11	=11	=11	=11	=11	=11
8BB/L	4FFF#\_ 4FF#_	16a\LL] 16dd] 16ff#] 16aa]	<	16a/]	4ryy	.	.	.	.
.	.	16cc#\ 16ee#X	.	16an/	.	-ce	-le	-de	.
!LO:TX:t=P:problem:krzyżyk w nawiasie	!	!	!	!	!	!	!	!	!
8GG#X/J	.	16f#\ 16ccn 16ff#	.	8r	.	.	.	.	.
.	.	16b\JJ 16ddn	.	.	.	.	.	.	.
8Cn/L	16FFF#\KL] 16FF#]	16en/LL 16a#X 16een	.	16ee\	8ee/	gra-	la	spie-	.
.	8.FFF#\J 8.FF#	16an/ 16cc#X	.	16ee\	.	.	.	-len	.
8En/J)	.	16dn/ 16g# 16ddn	.	16ddn\	8ryy	-ją	mé-	auf	.
.	.	[16gn/JJ [16b	[	16b\	.	na	-lo-	des	.
*v	*v	*	*	*v	*v	*	*	*	*
=12	=12	=12	=12	=12	=12	=12	=12
*	*^	*	*	*	*	*	*
(8FF#/L 8Dn 8Gn	8.B/L 8.b]	16g\LL]	.	(8.b\	stru-	-die	Mon-	.
.	.	16f#\	.	.	.	.	.	.
!LO:TX:t=P:problem:krzyżyk w nawiasie	!	!	!	!	!	!	!	!
(16FFF#X/L	.	16fn\	.	.	.	.	.	.
16FF#/JJ)	16c#/Jk 16cc#	16e\JJ	.	16cc#\)	-nach	.	-des	.
16GG#X/) 16D#X 16G#X	8B#X/) 8d# 8b#X	4ryy	.	8b#X\	mie-	pé-	Sil-	.
(16FFF#/LL	.	.	.	.	.	.	.	.
16FF#/	((8F#~/L 8d# 8f#X	.	<	[8ee\	-sią-	-né-	-ber-	.
16BB#X/	.	.	.	.	.	.	.	.
*	*v	*v	*	*	*	*	*	*
=13	=13	=13	=13	=13	=13	=13	=13
16C#X/JJ) 16A#X	8Gn/J) 8en 8gn	.	8ee\]	.	-tran-	-sai-	.
(16FFF#/LL	.	.	.	.	.	.	.
16FF#/	(8an~\L 8ff# 8aan	[	8dd#X\	-ca	-te,	-ten	.
16En/	.	.	.	.	.	.	.
16A#/JJ) 16c#X 16gn	16ccn\L 16ggn 16cccn	.	16r	.	.	.	.
!	!	!LO:HP:t=crescendo	!	!	!	!	!
(16FFF#/LL	16b\JJ) 16bb	<	16b\	od-	le	das	.
16FF#/	8G#X~/ 8e#X 8g#X	.	[8g#/	-wiecz-	chant	e-	.
16Dn/JJ	.	.	.	.	.	.	.
!!LO:LB:g=original
=14	=14	=14	=14	=14	=14	=14	=14
*	*	*	*^	*	*	*	*
16D#X/) 16B#X	8An/ 8f#X 8an	.	16g#/]	8ryy	.	.	.	.
(16FFF#/LL	.	.	16an/	.	-ny	my-	-wig	.
16FF#/	(8bn~\L 8gg#X 8bbn	.	(16ddn/	8dd\	ciem-	-sti-	dunk-	.
16F#/	.	.	16dd/	.	.	-que	.	.
16B#X/JJ) 16d#X 16an	16ddn\L 16aan 16dddn	.	16dd\)	4ryy	.	de	.	.
(16BBBn/LL	16cc#\JJ)) 16ccc#	.	16cc#\	.	-ny	la	-le	.
16BBn/	([8ccn^\L [8aan [8cccn	f	([8aan^\	.	hymn.	lu-	Lied.	.
16F#/	.	.	.	.	.	.	.	.
*	*	*	*v	*v	*	*	*	*
=15	=15	=15	=15	=15	=15	=15	=15
16An/JJ) 16d#X	16cc\L] 16aa] 16ccc]	.	4aa\]	.	.	.	.
(16CCCn/LL	16b\JJ) 16bb	.	.	.	.	.	.
16CCn/	([8b-X^\L [8een [8bb-X	>	.	.	.	.	.
16BB-X/	.	.	.	.	.	.	.
16En/JJ) 16B-X	16b-\L] 16ee] 16bb-]	.	8ggn\)	.	-ne.	.	.
(16CCC#X/LL	16an\JJ) 16aan	.	.	.	.	.	.
!	!LO:TX:a:i:t=molto rallent.	!	!	!	!	!	!
16CC#X/	(([8g#X^\L [8een [8gg#X	.	8r	.	.	.	.
16BBn/	.	.	.	.	.	.	.
=16	=16	=16	=16	=16	=16	=16	=16
*M3/8	*M3/8	*	*M3/8	*	*	*	*
16Bn/JJ)	16g#\L] 16ee] 16gg#]	.	4.r;	.	.	.	.
(16GGGn/LL	16gn\JJ) 16ggn	]	.	.	.	.	.
!	!LO:TX:a:i:t=ten.	!	!	!	!	!	!
16GGn/	8.fn\) 8.bn 8.ee-X 8.ff#	.	.	.	.	.	.
16BB/	.	.	.	.	.	.	.
16B/JJ)	.	.	.	.	.	.	.
[16FFF#X;/ [16FF#X	16r;	.	.	.	.	.	.
!!LO:PB:g=original
=17||	=17||	=17||	=17||	=17||	=17||	=17||	=17||
*M3/4	*M3/4	*	*M3/4	*	*	*	*
*	*^	*	*	*	*	*	*
!LO:TX:a:i:t=dolce	!LO:TX:a:B:t=Molto tranquillo	!	!	!LO:TX:a:B:t=(Largo)	!	!	!	!
8FFF#X/L] 8FF#X]	(>8B/L 8d# 8b	2ryy	pp	4r	.	.	.	.
*Xtuplet	*	*	*	*	*	*	*	*
(24A#/L	8B/J 8d#	.	.	.	.	.	.	.
24An/	.	.	.	.	.	.	.	.
24G#/JJ	.	.	.	.	.	.	.	.
[8BB/L	8Gn/L 8A#X 8c#X 8e	.	.	4.b\	Scho-	L’om-	Nacht	.
24BB/L]	8G#X/J 8dn 8e#X	.	>	.	.	.	.	.
24AA#/	.	.	.	.	.	.	.	.
24AAn/JJ	.	.	.	.	.	.	.	.
[8GG#/L)	8B/L 8f#	4F#\ 4d#X	.	.	.	.	.	.
(24GGG#/L 24GG#]	8B#X/J) 8g#	.	.	8b#X\	-dzę	-bre	tief	.
24FFF#/ 24FF#	.	.	.	.	.	.	.	.
24FFFn/JJ 24FFn	.	.	.	.	.	.	.	.
*	*clefF4	*	*	*	*	*	*	*
=18	=18	=18	=18	=18	=18	=18	=18	=18
*	*	*	*	*^	*	*	*	*
8EEE/L) 8EE	(8An\L 8c# 8an	2ryy	]	8r	2ryy	.	.	.	.
(24G#/L	8A\J 8c#	.	.	8cc#\	.	w la-	pro-	im	.
24Gn/	.	.	.	.	.	.	.	.	.
24F#/JJ	.	.	.	.	.	.	.	.	.
[8AAn/L	8Fn\L 8G# 8B 8dn	.	>	8.an/	.	-bi-	-fon-	Er-	.
24AA/L]	8F#X\J 8cn 8d#X	.	.	.	.	.	.	.	.
24GG#/	.	.	.	.	.	.	.	.	.
.	.	.	.	16a/	.	-rynt	-de	-den-	.
24GGn/JJ	.	.	.	.	.	.	.	.	.
*	*	*	*	*cue	*	*	*	*	*
[8FF#/L)	8An/L 8e#X	4E\ 4c	.	(8a\	8r	.	.	-la-	.
*	*	*	*	*Xcue	*	*	*	*	*
(24FFF#/L 24FF#]	8A#X/J) 8f#	.	.	8a#X/)	8ryy	pod-	m’en-	-by-	.
24EEE/ 24EE	.	.	.	.	.	.	.	.	.
24DDD#/JJ 24DD#	.	.	.	.	.	.	.	.	.
*	*	*	*	*v	*v	*	*	*	*
!!LO:LB:g=original
=19	=19	=19	=19	=19	=19	=19	=19	=19
8DDDn/L) [8DDn	(8gn/L	8Gn\L 8B	]	8.b\	-ziem-	-tou-	-rin-	.
*	*	*Xtuplet	*	*	*	*	*	*
24DD/L]	8g#X/J	24e#X\L	.	.	.	.	.	.
(24F#/	.	24f#\	.	.	.	.	.	.
.	.	.	.	16b\	-ny	-re	-the,	.
24BB/JJ)	.	24B\JJ	.	.	.	.	.	.
8CCC#/L [8CC#	8an/L	8B#X\L 8f#	.	4r	.	.	.	.
24CC#/L]	8a#X/J	24f##X\L	.	.	.	.	.	.
(24E/	.	24en\	.	.	.	.	.	.
24AA#X/JJ)	.	[24A#X\JJ	.	.	.	.	.	.
8BBBB#X/L [8BBB#X	8b#X:/L	8A#:\L] 8en: 8g#:	.	8r	.	.	.	.
24BBB#/L]	8cc#X/J	24g##X\L	.	8e/	u	la	zu	.
(24A#X/	.	24a#X\	.	.	.	.	.	.
24E/JJ)	.	[24e\JJ	.	.	.	.	.	.
*	*v	*v	*	*	*	*	*	*
=20	=20	=20	=20	=20	=20	=20	=20
!	!	!	!	!	!	!	!LO:DY:a
!	!	!	!	!	!	!	!LO:DY:a
8BBBBn/L 8BBBn	16e/]) 16g#X 16b 16ee	pp	[2ee\	stóp	mer-	Fü-	pp <
!	!LO:TX:b:i:t=dolciss.	!	!	!	!	!	!
.	(8ee~:\L 8gg#: 8eee:	.	.	.	.	.	.
(24BB/L	.	.	.	.	.	.	.
24G#/	.	.	.	.	.	.	.
.	8g#~:\ 8dd#: 8ee: 8gg#:	.	.	.	.	.	.
24e/JJ)	.	.	.	.	.	.	.
[8d#\L	.	.	.	.	.	.	.
.	8an~:\ 8ccn: 8ff#: 8aan:	<	.	.	.	.	.
24d#\L]	.	.	.	.	.	.	.
24F##X\	.	.	.	.	.	.	.
.	8a#X~:\ 8cc#X: 8ggn: 8aa#X:	.	.	.	.	.	.
24BB\JJ	.	.	.	.	.	.	.
!	!	!	!	!	!	!	!LO:DY:a
([8AA#X\L	.	.	8ee\]	.	.	.	[ >
.	8b~:\ 8dd#X: 8gg: 8bb:	.	.	.	.	.	.
24AA#\L]	.	.	8dd#\	mych	-au	-ßen	]]
24F#X\	.	.	.	.	.	.	.
.	16b#X~:\Jk) 16dd#X: 16aan: 16bb#X:	[[	.	.	.	.	.
24d#\JJ)	.	.	.	.	.	.	.
!!LO:LB:g=original
=21	=21	=21	=21	=21	=21	=21	=21
(8AAAn/L [8AAn	16r	<	8ddn\	mo-	loin	bran-	.
.	(8ddn~:\L 8ff#: 8aan: 8dddn:	.	.	.	.	.	.
24AA/L]	.	.	8f#/	-rze	gé-	-den	.
24F#/	.	.	.	.	.	.	.
.	8f#~:\ 8cc#: 8dd: 8ff#:	.	.	.	.	.	.
24dn/JJ)	.	.	.	.	.	.	.
([8c#\L	.	.	8gn/	się	-mit	nur	.
.	8gn~:\ 8b-X: 8ee: 8ggn:	.	.	.	.	.	.
24c#\L]	.	.	8g#X/	roz-	et	die	.
24E#X\	.	.	.	.	.	.	.
.	8g#X~:\ 8bn: 8ee#X: 8gg#X:	[ >	.	.	.	.	.
24AA\JJ)	.	.	.	.	.	.	.
([8GG#X\L	.	.	8an/	-trą-	pleu-	Mee-	.
.	8an~:\ 8cc#X: 8ffn: 8aan:	.	.	.	.	.	.
24GG#\L]	.	.	8a#X/	-ca.	-re.	-re.	.
24En\	.	.	.	.	.	.	.
.	16a#X~:\Jk) 16cc#X: 16ff##X: 16aa#X:	]]	.	.	.	.	.
24c#\JJ)	.	.	.	.	.	.	.
=22	=22	=22	=22	=22	=22	=22	=22
8GGGn~/L 8GGn	16r	pp	2.r	.	.	.	.
.	(8ccn~:\L 8ee: 8ggn: 8cccn:	>	.	.	.	.	.
(24GG/L	.	.	.	.	.	.	.
24E/	.	.	.	.	.	.	.
.	16e~:\Jk) 16b: 16cc: 16ee:	.	.	.	.	.	.
24cn/JJ)	.	.	.	.	.	.	.
8EEE~/L 8EE	16r	.	.	.	.	.	.
!	!LO:TX:a:B:t=Allargando	!	!	!	!	!	!
.	(8ee~:\L 8gg: 8bb: 8ccc: 8eee:	.	.	.	.	.	.
(24GG/L	.	.	.	.	.	.	.
24E/	.	.	.	.	.	.	.
.	16e~:\Jk) 16gn: 16b: 16cc: 16ee:	>	.	.	.	.	.
24c/JJ)	.	.	.	.	.	.	.
([16CCCn/ [16CCn	16r	.	.	.	.	.	.
*	*8va	*	*	*	*	*	*
([8.E~\ 8.Gn &[8.c [8.e	(8ggn\L 8cccn 8eee 8gggn	.	.	.	.	.	.
.	16gg#X\Jk 16ggg#X	]]	.	.	.	.	.
=23	=23	=23	=23	=23	=23	=23	=23
*^	*	*	*	*	*	*	*
4E/] 4F#X 4c] 4e]	8CCC\L&] 8CCn]	4aa#X\ 4aaa#X	] ppp	2.r;	.	.	.	.
.	[8BBBB\J) [8BBB	.	.	.	.	.	.	.
2D#X;/) 2F# 2B 2d#X	2BBBB;\] 2BBB]	2bb;\) 2ddd#X 2fff#X 2bbb	.	.	.	.	.	.
*v	*v	*	*	*	*	*	*	*
*	*X8va	*	*	*	*	*	*
==	==	==	==	==	==	==	==
*-	*-	*-	*-	*-	*-	*-	*-
!!!system-decoration: s1{(s2,s3)}
!!!RDF**kern: > = above
!!!RDF**kern: < = below
!!!ENC: Filip Voros
!!!END: 2023-09-04
!!!ENC: Leszek Kubiak
!!!END: 2023-09-27
